icons-rebrand/svg/studio-mode-bold.svg

<svg width="32" height="32" viewBox="0 0 32 32" fill="none" xmlns="http://www.w3.org/2000/svg">
<path d="M7.69202 3L7.68986 3C6.44694 3.00269 5.2555 3.49752 4.37651 4.37651C3.49754 5.25548 3.00268 6.44679 3 7.68974V10C3 10.5523 3.44772 11 4 11C4.55228 11 5 10.5523 5 10V7.69306C5.0018 6.97931 5.28607 6.29538 5.79072 5.79073C6.29535 5.2861 6.9794 5.00181 7.69318 5H10C10.5523 5 11 4.55229 11 4C11 3.44772 10.5523 3 10 3L7.69202 3Z" fill="#0F0F0F"/>
<path d="M22 3C21.4477 3 21 3.44772 21 4C21 4.55228 21.4477 5 22 5H24.306C25.0199 5.00158 25.704 5.28575 26.2089 5.79045C26.7138 6.29519 26.9982 6.97926 27 7.69304V10C27 10.5523 27.4477 11 28 11C28.5523 11 29 10.5523 29 10L29 7.69189L29 7.68973C28.9973 6.44647 28.5021 5.25499 27.6229 4.37605C26.7437 3.49705 25.5521 3.00235 24.3089 3H22Z" fill="#0F0F0F"/>
<path d="M4 21C4.55228 21 5 21.4477 5 22V24.3068C5.0018 25.0206 5.28607 25.7045 5.79072 26.2092C6.29541 26.7138 6.97947 26.9982 7.69316 27H10C10.5523 27 11 27.4477 11 28C11 28.5523 10.5523 29 10 29L7.68986 29C6.44686 28.9973 5.25544 28.5023 4.37651 27.6234C3.49754 26.7444 3.00269 25.5531 3 24.3101L3 24.308V22C3 21.4477 3.44772 21 4 21Z" fill="#0F0F0F"/>
<path d="M29 22C29 21.4477 28.5523 21 28 21C27.4477 21 27 21.4477 27 22V24.3068C26.9982 25.0206 26.7138 25.7047 26.2089 26.2094C25.704 26.7142 25.0199 26.9984 24.306 27H22C21.4477 27 21 27.4477 21 28C21 28.5523 21.4477 29 22 29H24.307L24.3089 29C25.5522 28.9977 26.7437 28.5028 27.6229 27.6238C28.5021 26.7449 28.9973 25.5534 29 24.3101L29 22Z" fill="#0F0F0F"/>
<path d="M19.132 15.2322C19.9762 14.4142 20.501 13.2684 20.501 12C20.501 9.51472 18.4863 7.5 16.001 7.5C13.5157 7.5 11.501 9.51472 11.501 12C11.501 13.268 12.0254 14.4135 12.8692 15.2315C12.2594 15.5358 11.6922 15.93 11.1881 16.4058C9.88694 17.634 9.10483 19.3132 9.00166 21.0993C9.00056 21.1185 9 21.1377 9 21.157C9 21.9066 9.37152 22.5013 9.84973 22.9281C10.3135 23.3421 10.9178 23.6405 11.5471 23.8589C12.8115 24.2978 14.4311 24.5 16 24.5C17.5689 24.5 19.1885 24.2978 20.4529 23.8589C21.0822 23.6405 21.6865 23.3421 22.1503 22.9281C22.6285 22.5013 23 21.9066 23 21.157H22.9761L22.9983 21.0993C22.8952 19.313 22.1127 17.6339 20.8117 16.4058C20.3079 15.9304 19.7412 15.5364 19.132 15.2322ZM16.001 9.5C17.3817 9.5 18.501 10.6193 18.501 12C18.501 13.3286 17.4646 14.4152 16.1561 14.4953C16.1041 14.4941 16.0521 14.4935 16 14.4935C15.9484 14.4935 15.8968 14.4941 15.8453 14.4952C14.5371 14.4149 13.501 13.3284 13.501 12C13.501 10.6193 14.6203 9.5 16.001 9.5ZM15.8245 16.4966C15.883 16.4989 15.9419 16.5 16.001 16.5C16.0598 16.5 16.1183 16.4989 16.1765 16.4966C17.3915 16.5394 18.5518 17.0229 19.4388 17.8602C20.3591 18.7289 20.9163 19.9132 20.9992 21.1748C20.9951 21.2163 20.97 21.3007 20.8185 21.436C20.626 21.6078 20.2928 21.7974 19.7971 21.9695C18.8115 22.3116 17.4311 22.5 16 22.5C14.5689 22.5 13.1885 22.3116 12.2029 21.9695C11.7072 21.7974 11.374 21.6078 11.1815 21.436C11.03 21.3007 11.0049 21.2163 11.0008 21.1748C11.0837 19.9131 11.6407 18.7288 12.5609 17.8602C13.4482 17.0227 14.6091 16.5392 15.8245 16.4966Z" fill="#0F0F0F"/>
</svg>

<svg xmlns="http://www.w3.org/2000/svg" width="32" height="32" viewBox="0 0 32 32"><path d="M7.692 3H7.69A4.7 4.7 0 0 0 3 7.69V10a1 1 0 1 0 2 0V7.693A2.7 2.7 0 0 1 7.693 5H10a1 1 0 1 0 0-2H7.692ZM22 3a1 1 0 1 0 0 2h2.306A2.7 2.7 0 0 1 27 7.693V10a1 1 0 1 0 2 0V7.69A4.7 4.7 0 0 0 24.309 3H22ZM4 21a1 1 0 0 1 1 1v2.307A2.7 2.7 0 0 0 7.693 27H10a1 1 0 1 1 0 2H7.69A4.7 4.7 0 0 1 3 24.31V22a1 1 0 0 1 1-1ZM29 22a1 1 0 1 0-2 0v2.307A2.7 2.7 0 0 1 24.306 27H22a1 1 0 1 0 0 2H24.309A4.7 4.7 0 0 0 29 24.31V22ZM19.132 15.232a4.5 4.5 0 1 0-6.263 0A7.007 7.007 0 0 0 9 21.157c0 .75.372 1.344.85 1.771.463.414 1.068.712 1.697.93 1.264.44 2.884.642 4.453.642 1.569 0 3.189-.202 4.453-.641.63-.219 1.233-.517 1.697-.93.479-.428.85-1.022.85-1.772h-.024l.022-.058a7.01 7.01 0 0 0-3.866-5.867ZM16.001 9.5a2.5 2.5 0 0 1 .155 4.995 6.764 6.764 0 0 0-.31 0A2.5 2.5 0 0 1 16 9.5Zm-.177 6.997a4.495 4.495 0 0 0 .353 0 5.01 5.01 0 0 1 4.822 4.678c-.004.041-.029.126-.18.261-.193.172-.526.361-1.022.534-.986.342-2.366.53-3.797.53s-2.812-.188-3.797-.53c-.496-.173-.829-.362-1.021-.534-.152-.135-.177-.22-.181-.261a5.01 5.01 0 0 1 4.824-4.678Z"/></svg>
